X: 11
T: Branle double & Branle simple
R: branle
S: Toinot Arbeau, Orchesographie (1589)
M: 2/4
L: 1/8
K: Amin
"Am"A>B cc| "G"BA G2| "C"cdec| "G"ddcB| "Am"A>B cc| "G"BA G2| "Am"ccBA| "Em"AG "Am"A2 :|
|: "Am"A>B cc | "Em"BA Gc | "G"cB "C"c2 |"Am"A>B cc | "G"BA Gc | "Em"AG "Am"A2:|

